X:1
T:Title
%%score 1 { 2 | 3 }
L:1/8
Q:1/4=113
M:4/4
K:D
V:1 treble nm="Grand Piano, Unnamed-000"
V:2 bass nm="Choir Pad, Mount Zion, 77.77.77"
V:3 bass 
V:1
 [DF]2 [DG]2 [DA]2 [DB]2 | [Dd]2 [Gc]2 [Fd]4 | [EA]2 [DF]2 [FB]2 [^DB]2 | [EB]2 [DE]2 [CE]4 | %4
w: By~Arthur~Seymour~Sullivan,~1867 * * *||||
 [CE]2 [DF]2 [EG]2 [EG]2 | [EG]3 [FA] [EG]2 [DF]2 | [Dd]2 [Ec]2 [FB]2 [FA]2 | %7
w: |||
 [EA]2 [E^G]2 [EA]2 [EA]2 | [FA]2 [^DF]2 [CE]2 [DF]2 | [EG]2 [EG]2 [EG]4 | %10
w: |||
 [DF]2 [DG]2 [DA]2 [DB]2 | [A,D]2 [B,E]2 D4- | D4 z4 |] %13
w: |||
V:2
 A,2 G,2 F,2 E,2 | F,2 A,2 A,4 | A,2 A,2 B,2 A,2 | G,2 ^G,2 A,4 | A,2 A,2 C2 B,2 | %5
 A,2 A,2 A,2 A,2 | B,2 ^A,2 B,2[K:treble] D2 | C2 D2 C2 C2 | =C2[K:bass] B,2 B,2 B,2 | %9
 B,2 B,2 A,4 | A,2 G,2 F,2 E,2 | F,2 G,2 F,4- | F,4 z4 |] %13
V:3
 D,2 B,,2 A,,2 G,,2 | A,,2 A,,2 D,4 | C,2 D,2 ^D,2 B,,2 | E,2 E,2 A,,4 | G,2 F,2 E,2 D,2 | %5
 C,2 C,2 D,2 D,2 | B,,2 C,2 D,2 B,,2 | E,2 E,2 A,,2 A,,2 | A,,2 A,2 G,2 F,2 | E,2 D,2 C,4 | %10
 D,2 B,,2 A,,2 G,,2 | A,,2 A,,2 D,4- | D,4 z4 |] %13

